X:509
T:Wilson's Clog
C:Traditional - Arr. Wayne Benson
N:From "Bluegrass 97" Wayne Benson TablEdit by Tanner
R:bluegrass
L:1/8
Q:1/4=225
M:4/4
K:C
z6 {E}^FE | "D"D^F AF GA (3BAG | ^FA de ^fd A2 | "G"g2 ^fg "A"ed ^cd | "D"ed ^cB (3ABA (3G^FE | 
D^F AF GA (3BAG | ^FA de ^fd AF | "G"e^f ge "A"^cA Bc | "D"d^f e^c d2 cd | "A"eA AA ^fA AA | 
gA ^fA ed ^cd | eA ^fA gA fA | "E"ed ^cB "A"AG ^FE | "D"D^F AF GA (3BAG | ^FA de ^fd AF | 
"(G)"e^f ge "A"^cA Bc | "D"d^f e^c d2 cd | "A"eA AA ^fA AA | g2 ^f2 ed ^cd | e2 ^f2 g2 f2 | 
(3"E"e^fe (3d^cB (3ABA (3G^FE | "D"D^F AF GA (3BAG | ^FA de ^fd AF | "G"e^f ge "A"^cA Bc | 
"D"d^f "A"e^c "D"d4 | 


